resources/svg/sim-card-2-fill.svg

<svg fill="currentColor" viewBox="0 0 24 24" xmlns="http://www.w3.org/2000/svg"><path d="M5 2H15L19.7071 6.70711C19.8946 6.89464 20 7.149 20 7.41421V21C20 21.5523 19.5523 22 19 22H5C4.44772 22 4 21.5523 4 21V3C4 2.44772 4.44772 2 5 2ZM13 18V10H8V12H11V18H13ZM8 13V15H10V13H8ZM14 13V15H16V13H14ZM14 10V12H16V10H14ZM8 16V18H10V16H8ZM14 16V18H16V16H14Z"/></svg>

<svg xmlns="http://www.w3.org/2000/svg" viewBox="0 0 24 24" fill="currentColor">
    <g>
        <path fill="none" d="M0 0h24v24H0z"/>
        <path d="M5 2h10l4.707 4.707a1 1 0 0 1 .293.707V21a1 1 0 0 1-1 1H5a1 1 0 0 1-1-1V3a1 1 0 0 1 1-1zm8 16v-8H8v2h3v6h2zm-5-5v2h2v-2H8zm6 0v2h2v-2h-2zm0-3v2h2v-2h-2zm-6 6v2h2v-2H8zm6 0v2h2v-2h-2z"/>
    </g>
</svg>
